!!!OTL: Es gung ein J&auml;ger wohl jagen (1-15), S. 40
!!!id: K0091
**kern
*clefG2
*k[f#]
*G:
{8d
8d
=1
4.b
8a
8g
8g
8f#
8g
=2
4a
4d}
4r
=3
{8d
8d
=4
4cc
4cc
4a
4a
=5
2b}
4r
=6
{8g
8a
=7
8b
8b
8b
8b
4b
4b
=8
4b
4dd
4dd}
=9
{8dd
8dd
=10
8cc
8cc
4cc
4a
4a
=11
2b}
4r
=12
{8g
8a
=13
8b
8b
8b
8b
4b
4b
=14
4b
4dd
4dd}
=15
{8dd
8dd
=16
8cc
8cc
4cc
4a
4a
=17
2b}
4r
==
*-
!!!minrhy: 8
!!!meters: 4/4 ]  ZZ[6
!!!cut: Es gung ein J&auml;ger wohl jagen (1-15), S. 40
!!!reg: Luxemburg
!!!trd: KINTZELE, Guillaume: An der Ucht, Bd. 1, Luxemburg 1926
!!!rhy1: XX  X_.XXXXX  X_X_0_
!!!rhy2: XX  X_X_X_X_  X__0_
!!!key: K0091  08  G 4/4 ]  ZZ[6
!!!mod: SECHSTONSKALA DUR ?]  AMBITUS[8
!!!kad: -535353
!!!akz: 312_423_3335_423_3335_423_
!!!fot: 'a__as'b__as'b__as'
!!!for: 'a__b__c__d__c__d__
!!!fok: 'M__/__/__\__/__\__
!! PHRAS[AUFTAKTIG]
!!!fkt: Verf&uuml;hrung, Beischlaf
!!!bem: in der Quelle mit einer 2. Stimme versehen
!! KINTZELE
!! PR[25] 2K[2] 2G[10] 3K[3] 3G[3] 4A[6] 4Ü[0] 5A[0] 6K[2] 6G[0]
!! 7K[3] 7G[0] 8A[2] MEHR[0] SI[30] ABS[63] SR[11] SP[19]
!! ST[14] 2k[8] 2g[16] 3k[8] 3g[6] 4d[2] 4ü[0] 5d[5] 6k[0] 6g[0]
!! 7k[0] 7g[0] 8d[0] mehr[0] si[44] dm[-14] sr[24] sp[21]
!! 1F[51] 2F[37] 3F[1] 4F[0] LF[0] 2P[9] 3P[1] 4P[0] TRI[0] DF[5] AB[67]
!! TF[2] U3K[0] U3[3] U4[0] U4Ü[0] U5[19] U6K[0] U6[2] U7K[0] U7[6]
!! N1[22] N2K[0] N2[22] N3K[0] N3[14] N4[5] N4Ü[2] N5[5] N6K[0] N6[0]
!!!n7k: 0] N7[0] O1[0] O2K[0] O2[0] O3K[0] O3[0] HÖ[0
!!!RNB: symbol: &auml;      = a umlaut  (UTF-8: Å„)
!!!RNB: symbol: &uuml;  = u umlaut (UTF-8: Ã¼)
